!!!SOCIAL_FUNCTION:	songs used in the treatment of the sick
!!!PDT:	1929
!!!OTL: No_81_We_Will_Join_Them.krn
!!!REG: Southwest
!!!LANG: Non-Tone
!!!LING_GROUP: Uto-Aztecan
**kern
*staff1
*clefF4
*k[b-e-]
*M2/4
8F\L
16d\L
16d\JJ
=1
(8.d\L
16B-\Jk)
8.B-\L
16F\Jk
=2
4.B-\
8c\
=3
8.c\L
16B-\Jk
12c\L
12B-\
12B-\J
=4
8B-\L
8F\J
8r
16B-\LL
16B-\JJ
=5
4c\
12c\L
12B-\
12B-\J
=6
4B-\
12B-\L
12G\
12B-\J
=7||
*M3/4
12B-\L
12F\
12F\J
12G\L
12F\
12F\J
8.F\L
16D\Jk
=8||
*M2/4
12G\L
12F\
12F\J
8.F\L
16F\Jk
=9
4D\
8.F\L
16F\Jk
=10||
*M3/4
8.F\L
16D\Jk
8.F\L
16F\Jk
32F\LLK
16.F\
16F\
16F\JJ
=11
[2F\
8F\]
8r
==:|!
*-
